resources/haticons/SVG/night_shelter.svg

<!-- Generated by IcoMoon.io -->
<svg version="1.1" xmlns="http://www.w3.org/2000/svg" width="24" height="24" viewBox="0 0 24 24">
<title>night_shelter</title>
<path d="M12 3l-8.016 6v12h16.031v-12zM9.75 12.516q0.516 0 0.891 0.352t0.375 0.867-0.375 0.891-0.891 0.375-0.891-0.375-0.375-0.891 0.375-0.867 0.891-0.352zM17.016 18h-1.031v-1.5h-7.969v1.5h-1.031v-6.984h1.031v4.5h3.469v-3.516h3.516q0.844 0 1.43 0.586t0.586 1.43v3.984z"></path>
</svg>

<svg xmlns="http://www.w3.org/2000/svg" width="24" height="24"><path d="M12 3L3.984 9v12h16.031V9zm-2.25 9.516q.516 0 .891.352t.375.867-.375.891-.891.375-.891-.375-.375-.891.375-.867.891-.352zM17.016 18h-1.031v-1.5H8.016V18H6.985v-6.984h1.031v4.5h3.469V12h3.516q.844 0 1.43.586t.586 1.43V18z"/></svg>
